X: 201
T: Dui Hua
%%abc-version 2.0
%%abcx-abcm2ps-target-version 5.9.1 (29 Sep 2008)
%%abc-creator hum2abc beta
%%abcx-conversion-date 2013/10/02 07:52:29
%%abc-edited-by Helmut Schaffrath
%%humdrum-veritas 3083249313
%%humdrum-veritas-data 1205547211
%%continueall 1
%%barnumbers 0
L: 1/16
M: 2/4
K: Bb
z2 d'2 f'2 d' c' [I:setbarnb 1]| 
f'2 d'2c'4 | 
z2 d'2 f'2 d' c' | 
b2> c'2 b g b2 | 
z2 a2 d'2 c' b | 
c'2 a g f d f2 | 
z2 a2 d'2 c' b | 
c' f' a gf4 |]  



